austria/municipalities/41341.svg

<?xml version="1.0" encoding="UTF-8"?>
<!DOCTYPE svg PUBLIC "-//W3C//DTD SVG 1.1//EN" "http://www.w3.org/Graphics/SVG/1.1/DTD/svg11.dtd">
<svg xmlns="http://www.w3.org/2000/svg" version="1.1" width="166px" height="207px" style="shape-rendering:geometricPrecision; text-rendering:geometricPrecision; image-rendering:optimizeQuality; fill-rule:evenodd; clip-rule:evenodd" xmlns:xlink="http://www.w3.org/1999/xlink">
<g><path style="opacity:1" fill="#000000" d="M -0.5,-0.5 C 54.8333,-0.5 110.167,-0.5 165.5,-0.5C 165.5,43.8333 165.5,88.1667 165.5,132.5C 159.762,165.428 141.429,188.595 110.5,202C 105.336,203.369 100.336,204.869 95.5,206.5C 86.8333,206.5 78.1667,206.5 69.5,206.5C 29.557,196.554 6.22367,171.221 -0.5,130.5C -0.5,86.8333 -0.5,43.1667 -0.5,-0.5 Z"/></g>
<g><path style="opacity:1" fill="#006632" d="M 3.5,3.5 C 56.1667,3.5 108.833,3.5 161.5,3.5C 161.667,47.5013 161.5,91.5013 161,135.5C 160.045,140.615 158.711,145.615 157,150.5C 147.061,130.633 132.061,125.3 112,134.5C 100.432,116.645 84.9317,112.145 65.5,121C 60.2504,124.415 56.2504,128.915 53.5,134.5C 38.7603,126.356 25.5936,128.356 14,140.5C 11.8061,143.554 10.1395,146.888 9,150.5C 6.45933,145.487 4.79266,140.154 4,134.5C 3.50001,90.8346 3.33334,47.1679 3.5,3.5 Z"/></g>
<g><path style="opacity:1" fill="#000000" d="M 73.5,65.5 C 65.7185,62.8832 60.8852,57.5499 59,49.5C 58.3333,40.1667 58.3333,30.8333 59,21.5C 61.6436,19.0358 64.8102,17.5358 68.5,17C 81.81,14.35 94.81,15.35 107.5,20C 110.013,22.3959 111.013,25.3959 110.5,29C 109.967,37.1985 109.133,45.3652 108,53.5C 106.907,56.6883 105.074,59.355 102.5,61.5C 98.5794,64.0434 94.7461,66.7101 91,69.5C 89.9457,77.1546 89.1124,84.8213 88.5,92.5C 89.0149,94.2251 89.6816,95.8917 90.5,97.5C 95.6675,98.4193 100.334,100.419 104.5,103.5C 105.488,108.041 103.488,110.541 98.5,111C 88.1667,111.667 77.8333,111.667 67.5,111C 61.8942,109.962 60.5608,107.129 63.5,102.5C 67.6803,99.5812 72.347,98.0812 77.5,98C 78.3578,96.43 79.0245,94.7633 79.5,93C 78.1189,90.8651 77.1189,88.5318 76.5,86C 77.5919,80.8741 77.7586,75.7074 77,70.5C 75.5881,68.9354 74.4214,67.2687 73.5,65.5 Z"/></g>
<g><path style="opacity:1" fill="#fefffe" d="M 74.5,17.5 C 85.0672,16.8264 95.4005,17.993 105.5,21C 106.705,23.2342 106.039,24.9008 103.5,26C 90.1667,29.3333 76.8333,29.3333 63.5,26C 60.9613,24.9008 60.2946,23.2342 61.5,21C 65.8602,19.4171 70.1936,18.2505 74.5,17.5 Z"/></g>
<g><path style="opacity:1" fill="#000000" d="M 85.5,20.5 C 88.9783,20.1842 92.3117,20.6842 95.5,22C 93.8333,22.1667 92.1667,22.3333 90.5,22.5C 88.3603,22.4439 86.6936,21.7773 85.5,20.5 Z"/></g>
<g><path style="opacity:1" fill="#000000" d="M 96.5,23.5 C 98.6934,22.2031 101.027,22.2031 103.5,23.5C 101.345,23.838 99.0115,23.838 96.5,23.5 Z"/></g>
<g><path style="opacity:1" fill="#fbfbfb" d="M 67.5,105.5 C 67.0472,104.542 66.3805,103.708 65.5,103C 70.7713,101.271 76.1047,99.7711 81.5,98.5C 79.3854,96.2783 79.7187,94.1117 82.5,92C 79.8966,90.4252 78.5633,88.0919 78.5,85C 79.5255,80.195 79.6921,75.3617 79,70.5C 77.9243,67.921 76.091,66.2543 73.5,65.5C 69.9424,62.4478 66.4424,59.1144 63,55.5C 62.3333,54.1667 61.6667,52.8333 61,51.5C 60.1683,43.1467 60.3349,34.8134 61.5,26.5C 75.2458,31.2432 89.2458,31.7432 103.5,28C 105.09,26.9542 106.59,25.7875 108,24.5C 108.598,34.253 107.932,43.9197 106,53.5C 104.6,56.9024 102.433,59.7357 99.5,62C 94.0305,63.8066 90.1971,67.3066 88,72.5C 87.6667,78.5 87.3333,84.5 87,90.5C 86.5,91 86,91.5 85.5,92C 88.2668,94.8988 87.6001,96.8988 83.5,98C 86.6561,97.9474 89.1561,99.1141 91,101.5C 91.3076,100.692 91.8076,100.025 92.5,99.5C 95.6731,100.21 98.6731,101.377 101.5,103C 99.7148,104.163 97.7148,104.83 95.5,105C 86.1726,105.5 76.8393,105.666 67.5,105.5 Z"/></g>
<g><path style="opacity:1" fill="#000000" d="M 101.5,29.5 C 102.993,30.3121 103.66,31.6455 103.5,33.5C 103.167,34.5 102.833,35.5 102.5,36.5C 101.526,34.2573 101.192,31.924 101.5,29.5 Z"/></g>
<g><path style="opacity:1" fill="#000000" d="M 69.5,30.5 C 70.675,30.281 71.675,30.6143 72.5,31.5C 70.9483,32.7979 69.9483,32.4646 69.5,30.5 Z"/></g>
<g><path style="opacity:1" fill="#000000" d="M 88.5,33.5 C 90.7677,33.3688 93.101,33.3688 95.5,33.5C 93.1413,34.7143 90.808,34.7143 88.5,33.5 Z"/></g>
<g><path style="opacity:1" fill="#000000" d="M 102.5,37.5 C 105.886,50.8964 101.219,60.063 88.5,65C 93.7134,61.4539 97.88,56.9539 101,51.5C 101.223,46.7503 101.723,42.0836 102.5,37.5 Z"/></g>
<g><path style="opacity:1" fill="#000000" d="M 85.5,67.5 C 86.3764,67.3691 87.0431,67.7025 87.5,68.5C 86.1028,70.9818 85.2694,73.6484 85,76.5C 84.5046,73.4686 84.6713,70.4686 85.5,67.5 Z"/></g>
<g><path style="opacity:1" fill="#fefffe" d="M 67.5,105.5 C 72.4009,107.052 77.5676,107.719 83,107.5C 89.9194,107.404 96.7528,106.904 103.5,106C 102.284,107.74 100.618,108.74 98.5,109C 88.1582,110.97 77.8249,110.97 67.5,109C 62.4137,107.148 62.4137,105.981 67.5,105.5 Z"/></g>
<g><path style="opacity:1" fill="#fefffe" d="M 77.5,119.5 C 92.6147,118.972 103.781,125.305 111,138.5C 126.671,129.921 140.004,132.588 151,146.5C 154.367,151.168 154.7,155.834 152,160.5C 147.736,140.624 135.902,133.457 116.5,139C 113.333,140.833 110.833,143.333 109,146.5C 101.93,124.819 88.0964,118.652 67.5,128C 61.7833,132.936 58.2833,139.103 57,146.5C 43.9263,133.227 30.9263,133.227 18,146.5C 16.0293,151.044 14.3627,155.711 13,160.5C 10.9675,155.708 11.3008,151.041 14,146.5C 25.4802,132.112 39.1469,129.779 55,139.5C 59.2162,129.116 66.7162,122.449 77.5,119.5 Z"/></g>
<g><path style="opacity:1" fill="#fefffe" d="M -0.5,130.5 C 6.22367,171.221 29.557,196.554 69.5,206.5C 46.1667,206.5 22.8333,206.5 -0.5,206.5C -0.5,181.167 -0.5,155.833 -0.5,130.5 Z"/></g>
<g><path style="opacity:1" fill="#fefffe" d="M 165.5,132.5 C 165.5,157.167 165.5,181.833 165.5,206.5C 142.167,206.5 118.833,206.5 95.5,206.5C 100.336,204.869 105.336,203.369 110.5,202C 141.429,188.595 159.762,165.428 165.5,132.5 Z"/></g>
</svg>

<svg xmlns="http://www.w3.org/2000/svg" width="166" height="207" style="shape-rendering:geometricPrecision;text-rendering:geometricPrecision;image-rendering:optimizeQuality;fill-rule:evenodd;clip-rule:evenodd"><path style="opacity:1" d="M-.5-.5h166v133c-5.738 32.928-24.071 56.095-55 69.5a236.853 236.853 0 0 0-15 4.5h-26c-39.943-9.946-63.276-35.279-70-76V-.5z"/><path style="opacity:1" fill="#006632" d="M3.5 3.5h158c.167 44.001 0 88.001-.5 132a101.87 101.87 0 0 1-4 15c-9.939-19.867-24.939-25.2-45-16-11.568-17.855-27.068-22.355-46.5-13.5-5.25 3.415-9.25 7.915-12 13.5-14.74-8.144-27.906-6.144-39.5 6a35.16 35.16 0 0 0-5 10c-2.54-5.013-4.207-10.346-5-16-.5-43.665-.667-87.332-.5-131z"/><path style="opacity:1" d="M73.5 65.5c-7.781-2.617-12.615-7.95-14.5-16a196.24 196.24 0 0 1 0-28c2.644-2.464 5.81-3.964 9.5-4.5 13.31-2.65 26.31-1.65 39 3 2.513 2.396 3.513 5.396 3 9a335.177 335.177 0 0 1-2.5 24.5c-1.093 3.188-2.926 5.855-5.5 8a216.665 216.665 0 0 0-11.5 8 403.816 403.816 0 0 0-2.5 23 29.789 29.789 0 0 0 2 5c5.168.92 9.834 2.919 14 6 .988 4.541-1.012 7.041-6 7.5a240.38 240.38 0 0 1-31 0c-5.606-1.038-6.94-3.871-4-8.5 4.18-2.919 8.847-4.419 14-4.5a22.731 22.731 0 0 0 2-5 22.721 22.721 0 0 1-3-7 43.63 43.63 0 0 0 .5-15.5 24.023 24.023 0 0 1-3.5-5z"/><path style="opacity:1" fill="#fefffe" d="M74.5 17.5c10.567-.674 20.9.493 31 3.5 1.205 2.234.539 3.9-2 5-13.333 3.333-26.667 3.333-40 0-2.539-1.1-3.205-2.766-2-5 4.36-1.583 8.694-2.75 13-3.5z"/><path style="opacity:1" d="M85.5 20.5c3.478-.316 6.812.184 10 1.5l-5 .5c-2.14-.056-3.806-.723-5-2zM96.5 23.5c2.193-1.297 4.527-1.297 7 0-2.155.338-4.489.338-7 0z"/><path style="opacity:1" fill="#fbfbfb" d="M67.5 105.5c-.453-.958-1.12-1.792-2-2.5a194.206 194.206 0 0 1 16-4.5c-2.115-2.222-1.781-4.388 1-6.5-2.603-1.575-3.937-3.908-4-7a41.152 41.152 0 0 0 .5-14.5c-1.076-2.579-2.909-4.246-5.5-5a144.094 144.094 0 0 1-10.5-10l-2-4a104.729 104.729 0 0 1 .5-25c13.746 4.743 27.746 5.243 42 1.5a36.012 36.012 0 0 0 4.5-3.5c.598 9.753-.068 19.42-2 29-1.4 3.402-3.567 6.236-6.5 8.5-5.47 1.807-9.303 5.307-11.5 10.5l-1 18-1.5 1.5c2.767 2.899 2.1 4.899-2 6 3.156-.053 5.656 1.114 7.5 3.5a4.451 4.451 0 0 1 1.5-2 32.018 32.018 0 0 1 9 3.5c-1.785 1.163-3.785 1.83-6 2-9.327.5-18.66.666-28 .5z"/><path style="opacity:1" d="M101.5 29.5c1.493.812 2.16 2.145 2 4l-1 3a13.115 13.115 0 0 1-1-7zM69.5 30.5c1.175-.219 2.175.114 3 1-1.552 1.298-2.552.965-3-1zM88.5 33.5a62.283 62.283 0 0 1 7 0c-2.359 1.214-4.692 1.214-7 0zM102.5 37.5c3.386 13.396-1.281 22.563-14 27.5 5.213-3.546 9.38-8.046 12.5-13.5.223-4.75.723-9.416 1.5-14zM85.5 67.5c.876-.13 1.543.203 2 1a19.954 19.954 0 0 0-2.5 8 20.68 20.68 0 0 1 .5-9z"/><path style="opacity:1" fill="#fefffe" d="M67.5 105.5c4.9 1.552 10.068 2.219 15.5 2 6.92-.096 13.753-.596 20.5-1.5-1.216 1.74-2.882 2.74-5 3-10.342 1.97-20.675 1.97-31 0-5.086-1.852-5.086-3.019 0-3.5zM77.5 119.5c15.115-.528 26.281 5.805 33.5 19 15.671-8.579 29.004-5.912 40 8 3.367 4.668 3.7 9.334 1 14-4.264-19.876-16.098-27.043-35.5-21.5a20.231 20.231 0 0 0-7.5 7.5c-7.07-21.681-20.904-27.848-41.5-18.5-5.717 4.936-9.217 11.103-10.5 18.5-13.074-13.273-26.074-13.273-39 0a112.594 112.594 0 0 0-5 14c-2.033-4.792-1.7-9.459 1-14 11.48-14.388 25.147-16.721 41-7 4.216-10.384 11.716-17.051 22.5-20z"/><path style="opacity:1" fill="#fefffe" d="M-.5 130.5c6.724 40.721 30.057 66.054 70 76h-70v-76zM165.5 132.5v74h-70a236.853 236.853 0 0 1 15-4.5c30.929-13.405 49.262-36.572 55-69.5z"/></svg>
